img/manaSymbols/wanted/wanted9.svg

<?xml version="1.0" encoding="UTF-8" standalone="no"?>
<svg
   width="714"
   height="714"
   viewBox="0 0 714 714"
   version="1.1"
   xml:space="preserve"
   style="fill-rule:evenodd;clip-rule:evenodd;stroke-linejoin:round;stroke-miterlimit:2;"
   id="svg2"
   sodipodi:docname="wanted9.svg"
   inkscape:version="1.3.2 (091e20e, 2023-11-25, custom)"
   xmlns:inkscape="http://www.inkscape.org/namespaces/inkscape"
   xmlns:sodipodi="http://sodipodi.sourceforge.net/DTD/sodipodi-0.dtd"
   xmlns="http://www.w3.org/2000/svg"
   xmlns:svg="http://www.w3.org/2000/svg"><defs
   id="defs2" /><sodipodi:namedview
   id="namedview2"
   pagecolor="#ffffff"
   bordercolor="#000000"
   borderopacity="0.25"
   inkscape:showpageshadow="2"
   inkscape:pageopacity="0.0"
   inkscape:pagecheckerboard="0"
   inkscape:deskcolor="#d1d1d1"
   inkscape:zoom="1.1386555"
   inkscape:cx="357"
   inkscape:cy="357"
   inkscape:window-width="3440"
   inkscape:window-height="1369"
   inkscape:window-x="1912"
   inkscape:window-y="482"
   inkscape:window-maximized="1"
   inkscape:current-layer="svg2" />
    <g
   transform="matrix(1,0,0,1,57,57)"
   id="g1">
        <circle
   cx="300"
   cy="300"
   r="300"
   style="fill:#d6b793;fill-opacity:1"
   id="circle1" />
        <path
   d="M300,-57C102.966,-57 -57,102.966 -57,300C-57,497.034 102.966,657 300,657C497.034,657 657,497.034 657,300C657,102.966 497.034,-57 300,-57ZM300,0C465.575,0 600,134.425 600,300C600,465.575 465.575,600 300,600C134.425,600 0,465.575 0,300C0,134.425 134.425,0 300,0Z"
   style="fill:#594c42;fill-opacity:1"
   id="path1" />
    </g>
    <g
   transform="matrix(1,0,0,1,57,57)"
   id="g2">
        <path
   d="M375,280C384,188 344,106 294,106C241,106 227,171 227,215C227,234 230,334 296,334C310,334 345,330 375,280ZM189,493C344,494 365,352 365,352C365,352 325,385 275,385C162,385 119,237 164,156C198,95 235,65 296,65C409,65 456,183 456,268C456,305 439,523 188,533"
   style="fill:#000000;fill-rule:nonzero"
   id="path2" />
    </g>
</svg>

﻿<?xml version="1.0" encoding="utf-8"?>
<svg width="714" height="714" viewBox="0 0 714 714" version="1.1" xml:space="preserve" style="fill-rule: evenodd; clip-rule: evenodd; stroke-linejoin: round; stroke-miterlimit: 2;" id="svg2" sodipodi:docname="wanted9.svg" inkscape:version="1.3.2 (091e20e, 2023-11-25, custom)" xmlns:inkscape="http://www.inkscape.org/namespaces/inkscape" xmlns:sodipodi="http://sodipodi.sourceforge.net/DTD/sodipodi-0.dtd" xmlns="http://www.w3.org/2000/svg">
  <sodipodi:namedview id="namedview2" pagecolor="#ffffff" bordercolor="#000000" borderopacity="0.25" inkscape:showpageshadow="2" inkscape:pageopacity="0.0" inkscape:pagecheckerboard="0" inkscape:deskcolor="#d1d1d1" inkscape:zoom="1.1386555" inkscape:cx="357" inkscape:cy="357" inkscape:window-width="3440" inkscape:window-height="1369" inkscape:window-x="1912" inkscape:window-y="482" inkscape:window-maximized="1" inkscape:current-layer="svg2" />
  <g transform="matrix(1,0,0,1,57,57)" id="g1">
    <circle cx="300" cy="300" r="300" style="fill: rgb(214, 183, 147); fill-opacity: 1;" id="circle1" />
    <path d="M300-57C102.966-57-57 102.966-57 300s159.966 357 357 357 357-159.966 357-357S497.034-57 300-57zm0 57c165.575 0 300 134.425 300 300S465.575 600 300 600 0 465.575 0 300 134.425 0 300 0z" style="fill: rgb(89, 76, 66); fill-opacity: 1;" id="path1" />
  </g>
  <g transform="matrix(1,0,0,1,57,57)" id="g2">
    <path d="M375 280c9-92-31-174-81-174-53 0-67 65-67 109 0 19 3 119 69 119 14 0 49-4 79-54zM189 493c155 1 176-141 176-141s-40 33-90 33c-113 0-156-148-111-229 34-61 71-91 132-91 113 0 160 118 160 203 0 37-17 255-268 265" style="fill: rgb(0, 0, 0); fill-rule: nonzero;" id="path2" />
  </g>
</svg>
